icons/filter-24.svg

<svg xmlns="http://www.w3.org/2000/svg" width="24" height="24" viewBox="0 0 24 24"><path d="M2.75 6a.75.75 0 000 1.5h18.5a.75.75 0 000-1.5H2.75zM6 11.75a.75.75 0 01.75-.75h10.5a.75.75 0 010 1.5H6.75a.75.75 0 01-.75-.75zm4 4.938a.75.75 0 01.75-.75h2.5a.75.75 0 010 1.5h-2.5a.75.75 0 01-.75-.75z"/></svg>

<svg xmlns="http://www.w3.org/2000/svg" width="24" height="24" viewBox="0 0 24 24">
  <defs/>
  <path d="M2.75,6 A0.75 0.75 0 0 0 2.75,7.5 L21.25,7.5 A0.75 0.75 0 0 0 21.25,6 L2.75,6 Z M6,11.75 A0.75 0.75 0 0 1 6.75,11 L17.25,11 A0.75 0.75 0 0 1 17.25,12.5 L6.75,12.5 A0.75 0.75 0 0 1 6,11.75 Z M10,16.688 A0.75 0.75 0 0 1 10.75,15.938 L13.25,15.938 A0.75 0.75 0 0 1 13.25,17.438 L10.75,17.438 A0.75 0.75 0 0 1 10,16.688 Z"/>
</svg>
